dist/svgs/crypto-icons/icons/msp.svg

<?xml version="1.0" encoding="UTF-8" standalone="yes"?>
<svg xmlns="http://www.w3.org/2000/svg" xmlns:xlink="http://www.w3.org/1999/xlink" width="510.66666666666663px" height="454.66666666666663px" viewBox="0 0 383 341" version="1.1">
  <g id="surface1">
    <path style=" stroke:none;fill-rule:nonzero;fill:rgb(0%,0%,0%);fill-opacity:1;" d="M 7.410156 0.796875 C 6.082031 -0.140625 4.339844 -0.257812 2.898438 0.496094 C 1.457031 1.253906 0.5625 2.753906 0.578125 4.378906 L 0.578125 199.140625 C 0.570312 203.058594 2.472656 206.738281 5.675781 208.996094 L 47.367188 238.636719 C 49.324219 240.019531 52.027344 239.558594 53.417969 237.605469 C 53.933594 236.867188 54.210938 235.988281 54.214844 235.085938 L 54.214844 111.511719 C 54.265625 110.984375 54.582031 110.523438 55.050781 110.277344 C 55.523438 110.035156 56.082031 110.046875 56.542969 110.308594 L 157.265625 181.855469 C 159.121094 183.179688 160.222656 185.316406 160.21875 187.597656 L 160.21875 313.921875 C 160.195312 317.027344 161.6875 319.949219 164.222656 321.746094 L 187.464844 338.277344 C 189.886719 339.984375 193.113281 339.984375 195.535156 338.277344 L 218.855469 321.621094 C 221.390625 319.824219 222.882812 316.902344 222.859375 313.796875 L 222.859375 187.535156 C 222.851562 185.253906 223.953125 183.113281 225.8125 181.792969 L 326.535156 110.246094 C 326.984375 109.921875 327.578125 109.878906 328.070312 110.132812 C 328.5625 110.386719 328.867188 110.894531 328.863281 111.449219 L 328.863281 235.023438 C 328.867188 236.648438 329.769531 238.132812 331.210938 238.878906 C 332.648438 239.625 334.386719 239.507812 335.710938 238.574219 L 377.402344 208.949219 C 380.605469 206.683594 382.503906 203 382.5 199.078125 L 382.5 4.347656 C 382.507812 3.183594 382.046875 2.066406 381.21875 1.246094 C 380.394531 0.429688 379.269531 -0.0195312 378.105469 0 C 377.203125 -0.0078125 376.324219 0.273438 375.589844 0.796875 L 196.972656 127.6875 C 193.703125 130.035156 189.296875 130.035156 186.027344 127.6875 Z M 7.410156 0.796875 "/>
  </g>
</svg>

<svg xmlns="http://www.w3.org/2000/svg" viewBox="0 0 383 341"><path d="M7.41.797a4.338 4.338 0 00-4.512-.3 4.34 4.34 0 00-2.32 3.882V199.14a12.031 12.031 0 005.098 9.855l41.691 29.64a4.346 4.346 0 006.051-1.03 4.432 4.432 0 00.797-2.52V111.512c.05-.528.367-.989.836-1.235a1.568 1.568 0 011.492.032l100.723 71.546a7.038 7.038 0 012.953 5.743v126.324a9.499 9.499 0 004.004 7.824l23.242 16.531a7 7 0 008.07 0l23.32-16.656a9.499 9.499 0 004.004-7.824V187.535a7.012 7.012 0 012.953-5.742l100.723-71.547a1.471 1.471 0 011.535-.113c.493.254.797.762.793 1.316v123.574a4.347 4.347 0 006.848 3.551l41.691-29.625a12.075 12.075 0 005.098-9.87V4.347a4.323 4.323 0 00-1.281-3.102A4.323 4.323 0 00378.105 0a4.27 4.27 0 00-2.515.797l-178.617 126.89a9.385 9.385 0 01-10.946 0zm0 0"/></svg>
